packages/core/src/svgs/flr.svg

<svg width="24" height="24" viewBox="0 0 24 24" fill="none" xmlns="http://www.w3.org/2000/svg">
<g clip-path="url(#clip0_31_10366)">
<path d="M0 0H24V24H0V0Z" fill="#F0F3FA"/>
<path d="M15.7713 11.1431H9.57418C7.87275 11.1431 6.47561 12.4331 6.43275 14.0659C6.43275 14.1088 6.46704 14.1431 6.51847 14.1431H12.7199C14.4213 14.1516 15.8185 12.8531 15.8613 11.2202C15.8592 11.199 15.8492 11.1793 15.8334 11.1651C15.8175 11.1508 15.7969 11.143 15.7756 11.1431H15.7713ZM18.7713 6.42878H9.53132C8.73467 6.41355 7.96373 6.71098 7.38374 7.25734C6.80374 7.80369 6.46082 8.55549 6.42847 9.35164C6.42847 9.39449 6.46275 9.42878 6.50561 9.42878H15.7499C16.547 9.44404 17.3184 9.14674 17.8991 8.6005C18.4797 8.05426 18.8236 7.30245 18.857 6.50592C18.857 6.46307 18.8185 6.42878 18.7756 6.42878H18.7713ZM7.92847 18.8574C8.32629 18.8574 8.70782 18.6993 8.98913 18.418C9.27043 18.1367 9.42847 17.7552 9.42847 17.3574C9.42847 16.9595 9.27043 16.578 8.98913 16.2967C8.70782 16.0154 8.32629 15.8574 7.92847 15.8574C7.53064 15.8574 7.14911 16.0154 6.86781 16.2967C6.5865 16.578 6.42847 16.9595 6.42847 17.3574C6.42847 17.7552 6.5865 18.1367 6.86781 18.418C7.14911 18.6993 7.53064 18.8574 7.92847 18.8574Z" fill="#E62058"/>
</g>
<defs>
<clipPath id="clip0_31_10366">
<rect width="24" height="24" fill="white"/>
</clipPath>
</defs>
</svg>

<svg xmlns="http://www.w3.org/2000/svg" width="24" height="24" fill="none" viewBox="0 0 24 24"><g clip-path="url(#a)"><path fill="#F0F3FA" d="M0 0h24v24H0z"/><path fill="#E62058" d="M15.771 11.143H9.574c-1.701 0-3.098 1.29-3.141 2.923 0 .043.034.077.085.077h6.202c1.701.009 3.098-1.29 3.141-2.923a.086.086 0 0 0-.085-.077zm3-4.714h-9.24a3.047 3.047 0 0 0-3.103 2.923c0 .042.035.077.078.077h9.244a3.05 3.05 0 0 0 3.107-2.923c0-.043-.038-.077-.081-.077zM7.928 18.857a1.5 1.5 0 1 0 0-3 1.5 1.5 0 0 0 0 3"/></g><defs><clipPath id="a"><path fill="#fff" d="M0 0h24v24H0z"/></clipPath></defs></svg>
